packages/dnb-ui-lib/assets/icons/home_medium.svg

<svg width="24" height="24" viewBox="0 0 24 24" fill="none" xmlns="http://www.w3.org/2000/svg">
<path d="M8.5 19.5062V14.0175C8.5 13.4663 8.94772 13.0195 9.5 13.0195H14.5C15.0523 13.0195 15.5 13.4663 15.5 14.0175V19.5062M3.5 22.5H20.5C21.6046 22.5 22.5 21.6064 22.5 20.5041V10.0549C22.5 9.41027 22.1881 8.80538 21.6625 8.43073L13.1625 2.37177C12.4671 1.87608 11.5329 1.87608 10.8375 2.37177L2.33752 8.43073C1.81193 8.80538 1.5 9.41027 1.5 10.0549V20.5041C1.5 21.6064 2.39543 22.5 3.5 22.5Z" stroke="black" stroke-width="1.5" stroke-linejoin="round"/>
</svg>

<svg width="24" height="24" viewBox="0 0 24 24" fill="none" xmlns="http://www.w3.org/2000/svg"><path d="M8.5 19.464v-5.489a.999.999 0 011-.998h5a1 1 0 011 .998v5.489m-12 2.994h17c1.105 0 2-.894 2-1.996v-10.45c0-.644-.312-1.249-.837-1.623l-8.5-6.06a2.003 2.003 0 00-2.325 0l-8.5 6.06c-.526.374-.838.98-.838 1.624v10.449c0 1.102.895 1.996 2 1.996z" stroke="#000" stroke-width="1.5" stroke-linejoin="round"/></svg>
